X:1
T:Violin Sonata in G minor, RV 28
T:Violin Sonata in g-minor, RV 28
T:Antonio Vivaldi (1678 — 1741)
T:for Oboe or Violin, Continuo. Transcribed for (A,T)Recorder, Viola da gamba, Cembalo  from IMSLP#333327 PDF File
T:Public Domain - Non-PD US
T:Public Domain - Non-PD US
T:Public Domain - Non-PD US
T:Public Domain - Non-PD US
T:Public Domain - Non-PD US
T:Public Domain - Non-PD US
T:Public Domain - Non-PD US
C:Antonio Vivaldi (1678 - 1741)
Z:Public Domain - Non-PD US
%%score [ 1 2 3 ] { ( 4 6 7 ) | 5 }
L:1/8
Q:1/4=50
M:4/4
K:Bb
V:1 treble nm="Alto Rec." snm="A."
V:2 treble nm="Tenor Recorder" snm="T. Rec."
V:3 bass nm="Viola da gamba" snm="Vla. d. g."
V:4 treble nm="Harpsichord" snm="Hch."
V:6 treble 
V:7 treble 
V:5 bass 
V:1
"^1. Largo" z | z8 | z8 | z8 | z8 | z8 | z8 | z8 | z8 | z8 | z4 z2 z :: z | z8 | z8 | z8 | z8 | %16
 z8 | z8 | z8 | z8 | z8 | z8 | z8 | z4 z3 :| z/8 |[M:2/2]"^2. Allegro"[Q:1/2=50] z8 | z8 | z8 | %28
 z8 | z8 | z8 | z8 | z8 | z8 | z8 | z8 | z8 | z8 | z8 | z8 | z8 | z8 | z8 | z8 | z8 | z8 | z8 | %47
 z8 | z8 | z8 | z8 | z8 | z8 | z8 | z8 | z8 | z8 | z8 | z8 | z8 | z8 | z8 | z8 | z8 | z8 | z8 | %66
 z8 | z8 | z8 | z8 | z8 | z8 | z8 | z8 | z8 | z8 | z8 | z8 | z8 | z8 | z8 | z8 | z8 | z8 |] z/8 | %85
[M:4/4]"^3. Largo"[Q:1/4=50]"^Change to" eG/_A/ Bc TcBge | Ted_af Tfebg | %87
 Tff B2- B/(B/4c/4d/4e/4g/4_a/4 b/4)(a/4g/4f/4e/4d/4c/4B/4) | %88
 c/(f/g/_a/) c2- c/(d/4e/4f/4g/4=a/4b/4 c'/4)(b/4a/4g/4f/4e/4d/4c/4) | %89
 d/(B/d/f/) g2- g/4(e/4f/4g/4)c/4(e/4d/4c/4) f2- | %90
 f/4(d/4e/4f/4)B/4(d/4c/4B/4) e2- (3e/(d/c/)(3(a/g/f/) (3(c'/b/a/)(3(g/f/e/) | dgTgf TfeTed | %92
 (3(d/B/d/)(3(g/a/b/) Tc>B B4 :| (B/c/d/e/) fg Tgfbd | TdcfB TBA f2- | f(g/_a/) gf ec _d2- | %96
 d(c/=B/) c=d e_B e2- | e(_d/c/) d=e fc _a2- | a(g/f/) g=a =bg e2- | e(d/c/) T=B>c c2 z2 | %100
 e(G/_A/) Bc TcBbg | Tgf B2- B/(B/4c/4d/)(e/4f/4 g/)(g/4_a/4b/)B/ | %102
 (c/f/g/_a/) c2- c/(c/4d/4e/)(f/4g/4 a/)(a/4b/4c'/)e/ | d/(B/d/f/) g2 f/(B/d/f/) g2 | %104
 f/(B/d/f/) _a2 g/(B/e/g/) b2 | (_a/f/)(g/e/) !trill(!Td>e !fermata!e4 |] %106
[M:3/8]"^4. Allegro"[Q:3/8=60] z G/A/B/G/ | ddd | gGg | aa/b/c'/a/ | bg>b | ad>a | gc>g | fB>f | %114
 e/d/e/g/f/e/ | dBF | G/A/B/c/d/e/ | A/B/c/d/e/f/ | B/c/d/e/f/d/ | e/d/e/f/g/a/ | bBe | d Tc2 | %122
 B z/ A/B/c/ | B>AB/c/ | B>AB/c/ | B>AB/c/ | B/c/d/e/f | g/f/g/a/b | d Tc2 | B3 :: z B/c/d/B/ | %131
 fff | bBb | cc/d/e/c/ | dB/c/d/e/ | f3- | f/e/f/d/e/f/ | ec/d/e/f/ | g3- | g/f/g/=e/f/g/ | fd z | %141
 be/d/e | ad/c/d | gc/B/c | fB/A/B | e/d/e/g/f/e/ | d/^c/d/f/=e/d/ | g/f/g/b/a/g/ | f/=e/d/e/f/g/ | %149
 a/d/ T=e2 | d2 z | z A/=B/^c/d/ | =e3- | ed/^c/d- | dc/B/c | ^f/g/a/c/B/A/ | BG z | z G/A/B/G/ | %158
 ddd | gGg | aa/b/c'/a/ | be/d/e | (d^cd) | z (d/^c/d) | (c=Bc) | d/e/d/c/B/A/ | BGg | a T^f2 | %168
 g2 z | ad/e/f/d/ | gc/d/e/c/ | ^f/=e/d/c/B/A/ | B/A/G/A/B/c/ | d/c/d/=e/^f/d/ | gGc | B TA2 | %176
 !fermata!G3 :| %177
V:2
 d | ((G>B)) (A>c) (B>d) (c>e) | d(c/B/) A(A/c/) ^F3 d | (a/g/)(^f/=e/) dc B>A G>d | %4
 (b/4g/4a/4b/4)(g/4e/4f/4g/4) (e/4c/4d/4e/4)(c/4A/4B/4c/4) (FAcf) | %5
 (a/4f/4g/4a/4)(f/4d/4e/4f/4) (d/4B/4c/4d/4)(B/4G/4A/4B/4) (EGBe) | %6
 (g/4e/4f/4g/4)(e/4c/4d/4e/4) (c/4A/4B/4c/4)(A/4^F/4G/4A/4) (DFAd) | (^cd)(Af) (=ef)(Aa) | %8
 (^ga)(Af) G2- G/4(B/4A/4G/4)(^c/4=e/4d/4c/4) | %9
 g2- g/4(b/4a/4g/4)(a/4g/4f/4=e/4) (g/4d/4d/4_e/4)(e/4=e/4e/4f/4) (f/4^f/4f/4g/4)(g/4^g/4g/4a/4) | %10
 (a/b/)(=e/g/) !trill(!T^c>d d3 :: a | (d>f) (=e>g) (f>a) (g>b) | a(g/f/) =e(f/g/) ^c3 a | %14
 (a/4g/4a/4b/4)(g/4=e/4f/4g/4) (e/4^c/4d/4e/4)(A/4g/4^f/4e/4) f3 g | %15
 (g/4f/4g/4_a/4)(f/4d/4e/4f/4) (d/4=B/4c/4d/4)(G/4f/4e/4d/4) e3 e | %16
 (f/4e/4f/4g/4)(e/4c/4d/4e/4) (c/4A/4B/4c/4)(F/4e/4d/4c/4) (3(d/c/B/)(3(e/d/c/) (3(f/e/d/)(3(g/f/e/) | %17
 (3(a/g/f/)b/B/ c>B B>(c d/e/f/g/) | (=B>c d/e/f/g/) (c>d e/f/g/a/) | %19
 (^c>d =e/^f/g/a/) f(e/d/) z g | (^fg)(de) (cd)(^Fa) | (^fg)(de) (cd)(^Fc) | %22
 (B/d/)(g/d/) (e/c/)(B/A/) (B/4G/4)(G/4_A/4)(A/4=A/4)(A/4B/4) (B/4=B/4)(B/4c/4)(c/4^c/4)(c/4d/4) | %23
 (d/e/)(A/c/) ^F>G !fermata!G3 :| z/8 |[M:2/2] G2 e2 ^F2 a2- | ac/B/cA BG g2- | %27
 gB/A/BG ^F2 z/ (d/c/d/) | ^f/(d/c/d/) A/(d/c/d/) f/(d/c/d/) A/(c/B/A/) | %29
 B/(d/c/d/) g/(d/c/d/) B/(d/c/d/) g/(d/c/d/) | b/(d/c/d/) (g/f/)(e/d/) e/(G/F/G/) c/(G/F/G/) | %31
 E/(G/F/G/) c/(G/F/G/) e/(G/F/G/) (c/B/)(A/G/) | A/(c/B/c/) f/(c/B/c/) A/(c/B/c/) f/(c/B/c/) | %33
 a/(c/B/c/) (f/e/)(d/c/) d2 z/ (B/c/d/) | (G/B/)e z/ (d/c/B/) (A/c/)f z/ (e/d/c/) | %35
 (B/d/)g z/ (f/e/d/) (c/d/)a- a/(f/g/a/) | (bag)f (=e_dc)B | ABFe{B} !trill(!Tc3 B | B2 z2 B2 g2 | %39
 A2 c'2- c'(e/d/)ec | dB b2- b(e/d/)ec | A2 z/ (F/G/A/ B/c/d/e/f)F | %42
 (G/F/)G z/ (G/A/B/ c/d/=e/f/)gG | (A/G/)A z/ (A/B/c/ d/=e/^f/g/)aA | %44
 (B/A/)B z/ (B/c/d/ e/f/g/a/) bB | A/B/F/c/ B/c/F/d/ c/d/F/f/ d/e/F/d/ | %46
 cF z c =B/c/G/d/ c/d/G/e/ | d/e/G/f/ e/f/G/e/ dG z d | ^c/d/A/=e/ d/e/A/f/ e/f/A/g/ f/g/A/f/ | %49
 =eA z/ (A/^c/e/) f/(d/c/d/) f/(a/g/f/) | b/(f/=e/d/) e/(b/a/^g/) a/(e/d/^c/) d/(a/g/^f/) | %51
 g/(d/^c/=B/) c/(g/f/=e/) f/(d/A/B/) A/(d/A/B/) | %52
 (A/d/)(A/B/) A/(g/f/=e/) f/(A/B/G/) (F/A/)(d/^c/) | d2 z2 d2 b2 | ^c2 =e2 eG/F/G=E | %55
 FD d2 df/=e/fd | ^c2 z/ (c/=B/c/) =e/(c/B/c/) A/(c/B/c/) | %57
 =e/(^c/=B/c/) G/(_B/A/G/) ^FD z/ (^f/e/f/) | a/(^f/=e/f/) d/(f/e/f/) a/(f/e/f/) c/(_e/d/c/) | %59
 =BG z/ (B/A/B/) d/(B/A/B/) G/(B/A/B/) | d/(=B/A/B/) F/(_A/G/F/) E(Gce) | g(edc) d(fg_a) | %62
 =B(_agf) (ed)(cB) | c2 z2 c2 _a2 | =B2 d2- d(f/e/)fd | ec c'2- c'(e/d/)ec | =B d2 g2 f2 (e/d/) | %67
 e g2 c'2 g2 (f/e/) | d ^f2 a2 c2 (B/A/) | B2 z2 G2 e2 | ^F2 a2- ac/B/cA | BG g2- gB/A/BG | %72
 ^F d2 c B g2 f | e d2 c B _A2 G | ^F2 z/ (d/c/d/) ^f/(d/c/d/) A/(d/c/d/) | %75
 ^f/(d/c/d/) A/(c/B/A/) B/(G/B/d/) c/(A/c/e/) | d/(B/d/g/) ^f/(d/f/a/) b/(G/F/G/) E/(b/a/g/) | %77
 a/(F/E/F/) D/(a/g/f/) g/(E/D/E/) C/(g/f/e/) | d/(^F/=E/F/) D/(c/B/A/) B/(G/F/G/) D/(c/B/A/) | %79
 B/(G/^F/G/) D/(c/B/A/) B/(G/B/d/)gG | (B2 TA>)G G2 e2 | ^F2 d2 E2 c2 | %82
 D2 z/ (d/=e/^f/) gGB(A/G/) | !fermata!G8 |] z/8 |[M:4/4] z8 | z8 | z8 | z8 | z8 | z8 | z8 | z8 :| %93
 z8 | z8 | z8 | z8 | z8 | z8 | z8 | z8 | z8 | z8 | z8 | z8 | z8 |][M:3/8] z3 | z3 | z3 | z3 | z3 | %111
 z3 | z3 | z3 | z3 | z3 | z3 | z3 | z3 | z3 | z3 | z3 | z3 | z3 | z3 | z3 | z3 | z3 | z3 | z3 :: %130
 z3 | z3 | z3 | z3 | z3 | z3 | z3 | z3 | z3 | z3 | z3 | z3 | z3 | z3 | z3 | z3 | z3 | z3 | z3 | %149
 z3 | z3 | z3 | z3 | z3 | z3 | z3 | z3 | z3 | z3 | z3 | z3 | z3 | z3 | z3 | z3 | z3 | z3 | z3 | %168
 z3 | z3 | z3 | z3 | z3 | z3 | z3 | z3 | z3 :| %177
V:3
 z | z2 z D, (G,>B,) (A,>C) | (B,>D) (C>E) D(C/B,/) A,(B,/C/) | ^F,3 F, G,A,B,A, | %4
 G,2 z2 z/ (F/E/D/ C/B,/A,/G,/) | F,2 z2 z/ (E/D/C/ B,/A,/G,/F,/) | %6
 E,2 z2 (D/C/B,/A,/) (G,/F,/E,/D,/) | A,,8- | A,,4- A,,/A,/^C,/=B,,/ A,,2- | %9
 A,,/(A,/^C,/=B,,/) A,,2 D,4 | D,G,A,A,, [D,F,A,]3 :: z | z2 z A, (D,>F,) (E,>G,) | %13
 (F,>A,) (G,>B,) A,(G,/F,/) =E,(F,/G,/) | ^C,2 z2 (D/C/B,/A,/ G,/^F,/=E,/D,/) | %15
 G,2 z2 (C/B,/A,/G,/ F,/=E,/D,/C,/) | F,2 z A,, B,,4 | F,D,/B,,/ F,F,, B,B,, z B, | %18
 G,G,, z F, E,E,, z C | A,A,, z A, DCB,G, | D,8- | D,8 | G,2 C,2 G,,4- | %23
 G,,C,D,D,, !fermata!G,,3 :| z/8 |[M:2/2] G,B,CC, D,=E,^F,E, | D,^F,=E,F, G,A,B,G, | %27
 C,2 ^C,2 D,=E,^F,E, | D,=E,^F,E, D,E,F,D, | G,A,B,A, G,A,B,A, | G,A,B,G, C,D,E,D, | %31
 C,D,E,D, C,D,E,C, | F,G,A,G, F,G,A,G, | F,G,A,F, B,CDB, | E,D,E,=E, F,E,F,^F, | %35
 G,F,G,G, A,F,A,F, | B,,8 | F,4 F,,4 | B,,/(B,/A,/G,/ F,/E,/D,/C,/) B,,D,E,E,, | %39
 F,G,A,G, F,A,G,A, | B,CDB, =E,3 E, | F,G,F,E, D,C,D,B,, | E,F,G,F, =E,D,E,C, | %43
 F,G,A,G, ^F,=E,F,D, | G,A,B,A, G,F,G,E, | F,2 F,2 F,2 F,2 | F,G,_A,F, G,2 G,2 | G,2 G,2 G,A,B,G, | %48
 A,2 A,2 A,2 A,2 | A,=B,^CA, D,A,DD, | D2 ^C2 =C2 =B,2 | B,2 A,2 D,4- | D,4- D,G,A,A,, | %53
 D,/(D/C/B,/ A,/G,/F,/E,/) D,F,G,G,, | A,,=B,,^C,B,, A,,C,B,,C, | D,=E,F,D, G,2 G,2 | %56
 A,G,A,G, A,G,A,G, | A,G,A,^C, D,A,D^C | D^CDC DCD^F, | G,F,G,F, G,F,G,F, | G,F,G,=B,, C,4 | %61
 C,4 F,4 | G,4 C,E,F,G, | C,/(C/B,/_A,/ G,/F,/E,/D,/) C,E,F,F,, | G,A,=B,A, G,F,G,B, | %65
 CDEC F,2 ^F,2 | G,2 G,2 G,2 G,2 | C,2 C,2 C,2 C,2 | ^F,2 F,2 F,2 F,2 | %69
 G,/G,/F,/E,/ D,/C,/B,,/A,,/ G,,B,CC, | D,=E,^F,E, D,F,E,F, | G,A,B,G, C,2 ^C,2 | %72
 D,2 ^F,2 G,2 =B,2 | C2 ^F,2 G,2 C,2 | D,=E,^F,E, D,E,F,E, | D,=E,^F,D, G,2 A,2 | B,2 D,2 G,2 C,2 | %77
 F,2 B,,2 E,3 E, | ^F,,3 F,, G,,D,^F,D, | G,,D,^F,D, G,A,B,G, | ^C,2 D,2 G,B,CC, | %81
 D,D,B,,B,, C,C,A,,A,, | B,,G,^F,D, B,,G,,D,D,, | !fermata!G,,8 |] z/8 |[M:4/4] EE, z E EE, z E | %86
 B,B,, z B, EE, z E | B,B,, z B, G,G,, z G, | _A,_A,, z F, =A,=A,, z A, | B,B,, z E _A,_A,, z A, | %90
 G,G,, z G, A,A,, z A, | B,EA,D G,CF,B, | =E,2 F,2 [B,,F,]4 :| B,B,, z B, B,B,, z B, | %94
 F,F,, z F, F,F,, z D | =B,=B,, z B, CC, z F, | G,2 _A,2 G,G,, z G, | A,2 B,2 _A,_A,, z C | %98
 D2 E2 DE z C | ^F,2 G,2 CB,/_A,/ G,F, | E,E,, z E, E,E,, z E, | B,B,, z B, G,G,, z G, | %102
 _A,_A,, z E, A,A,, z =A, | B,B,, z B, B,B,, z B, | B,B,, z B, B,B,, z B, | %105
 B,E,B,B,, !fermata!E,4 |][M:3/8] G,G,G, | F,F,F, | E,E,B,, | C,D,D, | G,,G,G, | F,F,F, | E,E,E, | %113
 D,D,D, | C,A,,A,, | B,,D,D, | E,E,E, | F,F,F, | G,G,G, | C,C,C, | D,B,,G,/A,/ | B,F,F,, | B,B,B, | %123
 A,A,A, | G,G,G, | F,F,E, | D,D,D, | E,E,E, | F,F,F, | B,,3 :: B,B,B, | A,A,A, | G,G,D, | E,F,F, | %134
 B,,2 z | z B,,/C,/D,/C,/ | =B,,B,,B,, | C,2 z | z C,/D,/E,/D,/ | ^C,C,C, | D,DD | DCC | CB,B, | %143
 B,A,A, | A,G,G, | G,G,A, | B,F,F, | =E,^C,C, | D,D,D, | D,A,A,, | D,D,/=E,/F,/G,/ | A,A,A, | %152
 G,G,G, | F,F,F, | E,E,E, | D,D,D, | G,G,,/A,,/B,,/C,/ | D,G,G, | F,F,F, | E,E,B,, | C,D,D, | %161
 G,,G,A, | B,B,B, | G,G,F, | E,D,C, | B,,G,,^F, | G,G,,B,, | C,D,D,, | G,,G,G, | G,F,F, | F,E,E, | %171
 D,D,D, | G,G,G, | ^F,D,C, | B,,B,A, | G,D,D,, | !fermata!G,,3 :| %177
V:4
 z | z8 | g2 ec AecG | d2 D4 G2 | [DB]2 z2 z2 Ac | [Ac]2 z2 z2 GB | [GBe]2 z2 z2 [Ad]2 | %7
 ^c [Fd]3 [c=e] [Adf]3 | [^G=B][=E^c] [Fd]2 [=G=e]4 | [G=e]4 [FAd]2 A2 | F =E3 D3 :: z | z8 | %13
 d2 BG =EBGD | A2 z2 z2 A2 | [DB]2 z2 z2 G2 | [CA]2 z C [DF][EG][FA][GB] | cB-BA [DFB]2 z D | %18
 [=B,DG]2 z D [CG]2 z e | [=E^c]2 [Ec]2 [^Fd]A[Gd]B | [^Fd] [DB]2 [Ec]2 [FA]2 [FAd]- | %21
 [FAd] [GB]2 [Ec]2 [DA]2 ^F | [B,DG]2 [EA]2 [DB] d2 [EA] | [DB][EA] [D^FA]2 !fermata![B,DG]3 :| %24
 z/8 |[M:2/2] [GBd]2 [EGc]2 [D^FA]2 D2 | [D^FA]2 c2 B2 G2 | [EGc]2 [GB]2 [^FA]2 D2 | %28
 [D^FA]2 D2 [DFA]2 D2 | [DGB]2 G2 [DGB]2 G2 | [DGB]2 G2 [DGc]2 G2 | [DGc]2 G2 [EGc]2 G2 | %32
 [CA]2 F2 [B,FA]2 F2 | [CFA]2 F2 [DFB]2 F2 | [B,EG]2 z C- [CA]3 D- | [DB]3 E [CF]2 [CF]2 | %36
 [F,B,D]4 [B,_DG]4 | [A,C]B, [A,C]2 [FAc]4 | [DFB]4 z2 [GB]2 | [CA]2 F2 [CA]2 Bc | %40
 [Gd]2 B2- [GB]2 [GBd]2 | [Ac]4 B2 F2 | G2 E2 G2 B2 | A2 F2 A2 c2 | B2 G2 E4 | %45
 [A,C]2 [B,D]2 [A,C]2 [B,D]2 | C2 F2 D2 E2 | [=B,D]2 [CE]2 [B,D]2 G2 | [^C=E]2 [DF]2 [CE]2 [DF]2 | %49
 [^C=E]2 [EA]2 [FA]2 [FA]2 | [FB]2 [=EB]2 [EA]2 [DA]2 | [DG]2 [^CG]2 [A,DF]4 | [DFA]4 d3 ^c | %53
 [FAd]2 z2 z A B2 | [^C=EA]2 E2 [CEA]2 G2 | [A,DF]2 D2 [DGB]2 [DFB]2 | [^C=EA]4 [CEA]2 [CEA]2 | %57
 [^CEA]2 G2 [D^F]2 A2 | [^FAd]2 [FAd]2 [FAd]2 [FAc]2 | [DG=B]4 [DGB]2 [DGB]2 | %60
 [DG=B]2 [Fd]2 [EGc]4 | [EGc]4 [D_Ad]4 | [DG=B]4 [EGc]2 d2 | [Gce]2 z2 z G _A2 | %64
 [=B,DG]2 D2 [B,DG]2 F2 | E2 G2 [CB]2 [Ec]2 | [D=B]2 [DB]2 [DB]2 [FB]2 | %67
 [EGc]2 [EGc]2 [EGc]2 [EGc]2 | [DA]2 [DA]2 [DA]2 [DAc]2 | [DGB]2 z2 z d e2 | [^FAd]2 A2 [FAd]2 c2 | %71
 [DGB]2 G2 [EGc]2 [GB]2 | [D^FA]2 [DA^c]2 [DGB]2 [=Fd]2 | [EGc]2 [Ac]2 [DGB]2 _AG | %74
 [A,D^F]2 D2 [FAd]2 D2 | [^FAd]2 D2 [DGB]2 [Ec]2 | [DGd]2 [^FAd]2 [DGB]2 [EGB]2 | %77
 [CFA]2 D2 [B,EG]2 C2 | A2 c2 BAdc | BAdc B2 G2 | [B,=EG]2 [A,D^F]2 [B,DG]2 [Ge]2 | d4 c2 ^F2 | %82
 G2 A2 d B2 A | !fermata![B,DG]8 |] z/8 |[M:4/4] [GB]2 z2 [_Ac][GB] z2 | [Ge][Fd] z2 [_Af][Ge] z2 | %87
 [Ge][Fd] z2 [EBe]2 z2 | [Fc]2 z2 [CFc]2 z2 | [DFB]2 z2 [EG]2 [DF]2 | [DF]2 [CE]2 [Ec]2 [Ec]2 | %91
 [DB]G[Gc]F [FB]E[Ec]D | [DG]2 [A,CF]2 [F,B,D]4 :| [DF]2 z2 [EG][DF] z2 | [DB][CA] z2 [DB]C z2 | %95
 [Fd]2 z2 [Ec]2 [_A_d-]2 | [Ed]2 [Ec]2 [EB]2 E2 | cF-FE F2 z2 | [FB]2 [Gc]2 [F=B][Gc] z2 | %99
 [Ec]2 [D=B]2 [EGc]2 z2 | [GBe]2 z2 [_Ac][GB] z2 | [Ge][Fd] z2 [Bd]2 z2 | [Fcf]2 z2 [ce]2 z2 | %103
 [Fd]2 [Ge]2 [Fd]2 [Ge]2 | [_Af]2 z2 [Ge]2 z2 | [FBd][GBe] [Bdf]2 !fermata![GBe]4 |] %106
[M:3/8] [B,DG]3 | [DA]3 | [CGc]2 [DG] | [EA] [A,D^F]2 | [B,DG]3 | [DA]3 | [CGc]3 | [FB]3 | efe | %115
 d B2 | B2 G | c2 A | d2 B | e3 | d2 B/c/ | d c2 | [DFB]3 | [DFB]3 | [DFB]3 | B2 A | [B,FB]3 | %127
 [GB]3 | [FBd] [FAc]2 | [DFB]3 :: [FBd]3 | [Fc]3 | def | [Bg] [Ac]2 | [DFB]2 F | [DFB]2 F | [Fd]3 | %137
 [EGc]2 G | e2 c | A3- | A3 | B3 | A3 | G3 | F3 | E2 C | D2 d | ^c =e2 | [FAd]3 | [FAd] [=EA^c]2 | %150
 [FAd]2 z | ^C3 | =E3 | A3 | G3 | ^F3 | [B,DG] z z | z [DB]2 | [DAd]3 | c2 d | edc | B2 c | G3 | %163
 B2 A | c=Bc | d2 c | B2 G | A ^F2 | [B,DG]3 | A3 | G3 | ^F3 | [B,DG]3 | D3 | G2 A | %175
 [DGB] [D^FA]2 | !fermata![B,DG]3 :| %177
V:5
 z | z2 z D, (G,>B,) (A,>C) | (B,>D) (C>E) D(C/B,/) A,(B,/C/) | ^F,3 F, G,A,B,A, | %4
 G,2 z2 z/ (F/E/D/ C/B,/A,/G,/) | F,2 z2 z/ (E/D/C/ B,/A,/G,/F,/) | %6
 E,2 z2 (D/C/B,/A,/) (G,/F,/E,/D,/) | A,,8- | A,,4- A,,/A,/^C,/=B,,/ A,,2- | %9
 A,,/(A,/^C,/=B,,/) A,,2 D,4 | D,G,A,A,, [D,F,A,]3 :: z | z2 z A, (D,>F,) (E,>G,) | %13
 (F,>A,) (G,>B,) A,(G,/F,/) =E,(F,/G,/) | ^C,2 z2 (D/C/B,/A,/ G,/^F,/=E,/D,/) | %15
 G,2 z2 (C/B,/A,/G,/ F,/=E,/D,/C,/) | F,2 z A,, B,,4 | F,D,/B,,/ F,F,, B,B,, z B, | %18
 G,G,, z F, E,E,, z C | A,A,, z A, DCB,G, | D,8- | D,8 | G,2 C,2 G,,4- | %23
 G,,C,D,D,, !fermata!G,,3 :| z/8 |[M:2/2] G,B,CC, D,=E,^F,E, | D,^F,=E,F, G,A,B,G, | %27
 C,2 ^C,2 D,=E,^F,E, | D,=E,^F,E, D,E,F,D, | G,A,B,A, G,A,B,A, | G,A,B,G, C,D,E,D, | %31
 C,D,E,D, C,D,E,C, | F,G,A,G, F,G,A,G, | F,G,A,F, B,CDB, | E,D,E,=E, F,E,F,^F, | %35
 G,F,G,G, A,F,A,F, | B,,8 | F,4 F,,4 | B,,/(B,/A,/G,/ F,/E,/D,/C,/) B,,D,E,E,, | %39
 F,G,A,G, F,A,G,A, | B,CDB, =E,3 E, | F,G,F,E, D,C,D,B,, | E,F,G,F, =E,D,E,C, | %43
 F,G,A,G, ^F,=E,F,D, | G,A,B,A, G,F,G,E, | F,2 F,2 F,2 F,2 | F,G,_A,F, G,2 G,2 | G,2 G,2 G,A,B,G, | %48
 A,2 A,2 A,2 A,2 | A,=B,^CA, D,A,DD, | D2 ^C2 =C2 =B,2 | B,2 A,2 D,4- | D,4- D,G,A,A,, | %53
 D,/(D/C/B,/ A,/G,/F,/E,/) D,F,G,G,, | A,,=B,,^C,B,, A,,C,B,,C, | D,=E,F,D, G,2 G,2 | %56
 A,G,A,G, A,G,A,G, | A,G,A,^C, D,A,D^C | D^CDC DCD^F, | G,F,G,F, G,F,G,F, | G,F,G,=B,, C,4 | %61
 C,4 F,4 | G,4 C,E,F,G, | C,/(C/B,/_A,/ G,/F,/E,/D,/) C,E,F,F,, | G,A,=B,A, G,F,G,B, | %65
 CDEC F,2 ^F,2 | G,2 G,2 G,2 G,2 | C,2 C,2 C,2 C,2 | ^F,2 F,2 F,2 F,2 | %69
 G,/G,/F,/E,/ D,/C,/B,,/A,,/ G,,B,CC, | D,=E,^F,E, D,F,E,F, | G,A,B,G, C,2 ^C,2 | %72
 D,2 ^F,2 G,2 =B,2 | C2 ^F,2 G,2 C,2 | D,=E,^F,E, D,E,F,E, | D,=E,^F,D, G,2 A,2 | B,2 D,2 G,2 C,2 | %77
 F,2 B,,2 E,3 E, | ^F,,3 F,, G,,D,^F,D, | G,,D,^F,D, G,A,B,G, | ^C,2 D,2 G,B,CC, | %81
 D,D,B,,B,, C,C,A,,A,, | B,,G,^F,D, B,,G,,D,D,, | !fermata!G,,8 |] z/8 |[M:4/4] EE, z E EE, z E | %86
 B,B,, z B, EE, z E | B,B,, z B, G,G,, z G, | _A,_A,, z F, =A,=A,, z A, | B,B,, z E _A,_A,, z A, | %90
 G,G,, z G, A,A,, z A, | B,EA,D G,CF,B, | =E,2 F,2 [B,,F,]4 :| B,B,, z B, B,B,, z B, | %94
 F,F,, z F, F,F,, z D | =B,=B,, z B, CC, z F, | G,2 _A,2 G,G,, z G, | A,2 B,2 _A,_A,, z C | %98
 D2 E2 DE z C | ^F,2 G,2 CB,/_A,/ G,F, | E,E,, z E, E,E,, z E, | B,B,, z B, G,G,, z G, | %102
 _A,_A,, z E, A,A,, z =A, | B,B,, z B, B,B,, z B, | B,B,, z B, B,B,, z B, | %105
 B,E,B,B,, !fermata!E,4 |][M:3/8] G,G,G, | F,F,F, | E,E,B,, | C,D,D, | G,,G,G, | F,F,F, | E,E,E, | %113
 D,D,D, | C,A,,A,, | B,,D,D, | E,E,E, | F,F,F, | G,G,G, | C,C,C, | D,B,,G,/A,/ | B,F,F,, | B,B,B, | %123
 A,A,A, | G,G,G, | F,F,E, | D,D,D, | E,E,E, | F,F,F, | B,,3 :: B,B,B, | A,A,A, | G,G,D, | E,F,F, | %134
 B,,2 z | z B,,/C,/D,/C,/ | =B,,B,,B,, | C,2 z | z C,/D,/E,/D,/ | ^C,C,C, | D,DD | DCC | CB,B, | %143
 B,A,A, | A,G,G, | G,G,A, | B,F,F, | =E,^C,C, | D,D,D, | D,A,A,, | D,D,/=E,/F,/G,/ | A,A,A, | %152
 G,G,G, | F,F,F, | E,E,E, | D,D,D, | G,G,,/A,,/B,,/C,/ | D,G,G, | F,F,F, | E,E,B,, | C,D,D, | %161
 G,,G,A, | B,B,B, | G,G,F, | E,D,C, | B,,G,,^F, | G,G,,B,, | C,D,D,, | G,,G,G, | G,F,F, | F,E,E, | %171
 D,D,D, | G,G,G, | ^F,D,C, | B,,B,A, | G,D,D,, | !fermata!G,,3 :| %177
V:6
 x | x8 | x8 | x2 D6- | x8 | x8 | x8 | x8 | x8 | x8 | x7 :: x | x8 | x8 | x8 | x8 | x8 | AB C2 z4 | %18
 x8 | x8 | x8 | x8 | x8 | x7 :| x/4 |[M:2/2] x8 | x2 GA D4 | x8 | x8 | x8 | x8 | x8 | x8 | x8 | %34
 x8 | x8 | x8 | x8 | x8 | x8 | x8 | x4 F4 | B,4 C4 | C4 D4 | D4 B,4 | x8 | A,4 =B,2 C2 | x8 | x8 | %49
 x8 | x8 | x8 | x4 [FA]BF=E | x5 D3 | x8 | x8 | x8 | x8 | x8 | x8 | x8 | x8 | x6 _AG | x5 C3 | x8 | %65
 x8 | x8 | x8 | x8 | x5 G3 | x8 | x8 | x8 | x6 E2 | x8 | x8 | x8 | x8 | D4 D4 | D4 D4 | x8 | %81
 ^F2 G2 E2 C2 | D2 D2 G3 [D^F] | x8 |] x/4 |[M:4/4] x8 | x8 | x8 | x8 | x8 | x8 | x8 | x8 :| x8 | %94
 x8 | x8 | x8 | E2 _D2 C2 z2 | x8 | x8 | x8 | x8 | x8 | x8 | x8 | x8 |][M:3/8] x3 | x3 | x3 | x3 | %110
 x3 | x3 | x3 | x3 | G [Fc]2 | F3 | G3 | A3 | B3 | G3 | F3 | F3 | x3 | x3 | x3 | F3 | x3 | x3 | %128
 x3 | x3 :: x3 | x3 | B3 | x3 | x3 | x3 | x3 | x3 | G3- | G3 | F3 | F E2 | E D2 | D C2 | C B,2 | %145
 B,2 x | x3 | G3 | x3 | x3 | x3 | x3 | x3 | =E D2 | D C2 | x3 | x3 | x3 | x3 | G3 | G ^F2 | D E2 | %162
 D^CD | E D2 | G3 | G2 A | D3 | E A,2 | x3 | E D2 | D C2 | CB,A, | x3 | x3 | D3 | x3 | x3 :| %177
V:7
 x | x8 | x8 | x8 | x8 | x8 | x8 | x8 | x8 | x8 | x7 :: x | x8 | x8 | x8 | x8 | x8 | x8 | x8 | x8 | %20
 x8 | x8 | x8 | x7 :| x/4 |[M:2/2] x8 | x8 | x8 | x8 | x8 | x8 | x8 | x8 | x8 | x8 | x8 | x8 | x8 | %38
 x8 | x8 | x8 | x8 | x8 | x8 | x8 | x8 | x8 | x8 | x8 | x8 | x8 | x8 | x8 | x8 | x8 | x8 | x8 | %57
 x8 | x8 | x8 | x8 | x8 | x8 | x8 | x8 | x8 | x8 | x8 | x8 | x8 | x8 | x8 | x8 | x8 | x8 | x8 | %76
 x8 | x8 | x8 | x8 | x8 | x8 | x8 | x8 |] x/4 |[M:4/4] x8 | x8 | x8 | x8 | x8 | x8 | x8 | x8 :| %93
 x8 | x8 | x8 | x8 | x8 | x8 | x8 | x8 | x8 | x8 | x8 | x8 | x8 |][M:3/8] x3 | x3 | x3 | x3 | x3 | %111
 x3 | x3 | x3 | x3 | x3 | x3 | x3 | x3 | x3 | x3 | x3 | x3 | x3 | x3 | D C2 | x3 | x3 | x3 | x3 :: %130
 x3 | x3 | x3 | x3 | x3 | x3 | x3 | x3 | x3 | x3 | x3 | x3 | x3 | x3 | x3 | x3 | x3 | x3 | x3 | %149
 x3 | x3 | x3 | x3 | x3 | x3 | x3 | x3 | x3 | x3 | x3 | x3 | x3 | x3 | x3 | x3 | x3 | x3 | x3 | %168
 x3 | x3 | x3 | x3 | x3 | x3 | x3 | x3 | x3 :| %177

